X: 11451
T: Eavesdropper, The
R: jig
M: 6/8
K: Gmajor
D|GBB BAG|Bdd dBG|cee dBG|FAA AFD|
GBB BAG|Bdd dBG|cde dBA|1 BGG G2D:|2 BGG G2d||
|:gfg aed|efg d2B|cde dBG|BAA A2d|
gfg aed|efg d2B|cde dBA|1 BGG G2d:|2 BGG G2||

